src/assets/icons/github.svg

<svg height="44" viewBox="0 0 44 44" width="44" xmlns="http://www.w3.org/2000/svg" xmlns:xlink="http://www.w3.org/1999/xlink"><linearGradient id="a" x1="100%" x2="0%" y1="0%" y2="100%"><stop offset="0" stop-color="#fa7d78"/><stop offset="1" stop-color="#6114cc"/></linearGradient><g fill="none" fill-rule="evenodd"><circle cx="22" cy="22" fill="url(#a)" r="22"/><path d="m11.8504865 0c-6.54486488 0-11.8504865 5.3267027-11.8504865 11.8988108 0 5.256 3.39535135 9.7157838 8.10486486 11.2890811.59286487.1096216.80886487-.2578378.80886487-.5730811 0-.2828108-.01005405-1.031027-.01589189-2.0237838-3.29708108.7196757-3.99308108-1.595027-3.99308108-1.595027-.53772973-1.3741622-1.31513514-1.74-1.31513514-1.74-1.07610811-.7381622.08108108-.7232432.08108108-.7232432 1.18897298.0836756 1.81556757 1.2262702 1.81556757 1.2262702 1.0572973 1.8178379 2.7732973 1.2927568 3.44918919.9878919.10767568-.768973.41351351-1.2934054.75243243-1.5911351-2.63189189-.2996757-5.39805405-1.32-5.39805405-5.8793514 0-1.29891889.46151351-2.36108105 1.21978378-3.19329726-.12227027-.3012973-.52897297-1.51005406.11610811-3.14854055 0 0 .99502703-.31978378 3.25881081 1.21978379.94540541-.264 1.95891896-.39567568 2.96724326-.40086487 1.0057297.00518919 2.0198919.13686487 2.9669189.40086487 2.2621622-1.53956757 3.2552432-1.21978379 3.2552432-1.21978379.6470271 1.63848649.2403244 2.84724325.1180541 3.14854055.7598919.83221621 1.2188108 1.89437837 1.2188108 3.19329726 0 4.5703784-2.7713513 5.5764325-5.411027 5.8712433.4248648.3674594.8043243 1.0929729.8043243 2.2031351 0 1.5904865-.0149189 2.8735135-.0149189 3.264 0 .3181622.2134054.6885406.815027.5717838 4.705946-1.5765405 8.0980541-6.0330811 8.0980541-11.2877838 0-6.5721081-5.3062703-11.8988108-11.8517838-11.8988108z" fill="#fff" transform="translate(10 10)"/></g></svg>

<?xml version="1.0" encoding="UTF-8"?>
<svg width="44px" height="44px" viewBox="0 0 44 44" version="1.1" xmlns="http://www.w3.org/2000/svg" xmlns:xlink="http://www.w3.org/1999/xlink">
    <!-- Generator: Sketch 49.3 (51167) - http://www.bohemiancoding.com/sketch -->
    <title>github</title>
    <desc>Created with Sketch.</desc>
    <defs>
        <linearGradient x1="100%" y1="0%" x2="0%" y2="100%" id="linearGradient-1">
            <stop stop-color="#FA7D78" offset="0%"></stop>
            <stop stop-color="#6114CC" offset="100%"></stop>
        </linearGradient>
    </defs>
    <g id="icons" stroke="none" stroke-width="1" fill="none" fill-rule="evenodd">
        <g id="a" transform="translate(-11.000000, -8.000000)">
            <g id="github" transform="translate(11.000000, 8.000000)">
                <circle id="Oval-2" fill="url(#linearGradient-1)" cx="22" cy="22" r="22"></circle>
                <g id="Group-31" transform="translate(10.000000, 10.000000)" fill="#FFFFFF">
                    <path d="M11.8504865,0 C5.30562162,0 0,5.3267027 0,11.8988108 C0,17.1548108 3.39535135,21.6145946 8.10486486,23.1878919 C8.69772973,23.2975135 8.91372973,22.9300541 8.91372973,22.6148108 C8.91372973,22.332 8.90367568,21.5837838 8.89783784,20.591027 C5.60075676,21.3107027 4.90475676,18.996 4.90475676,18.996 C4.36702703,17.6218378 3.58962162,17.256 3.58962162,17.256 C2.51351351,16.5178378 3.6707027,16.5327568 3.6707027,16.5327568 C4.85967568,16.6164324 5.48627027,17.759027 5.48627027,17.759027 C6.54356757,19.5768649 8.25956757,19.0517838 8.93545946,18.7469189 C9.04313514,17.9779459 9.34897297,17.4535135 9.68789189,17.1557838 C7.056,16.8561081 4.28983784,15.8357838 4.28983784,11.2764324 C4.28983784,9.97751351 4.75135135,8.91535135 5.50962162,8.08313514 C5.38735135,7.78183784 4.98064865,6.57308108 5.62572973,4.93459459 C5.62572973,4.93459459 6.62075676,4.61481081 8.88454054,6.15437838 C9.82994595,5.89037838 10.8434595,5.7587027 11.8517838,5.75351351 C12.8575135,5.7587027 13.8716757,5.89037838 14.8187027,6.15437838 C17.0808649,4.61481081 18.0739459,4.93459459 18.0739459,4.93459459 C18.720973,6.57308108 18.3142703,7.78183784 18.192,8.08313514 C18.9518919,8.91535135 19.4108108,9.97751351 19.4108108,11.2764324 C19.4108108,15.8468108 16.6394595,16.8528649 13.9997838,17.1476757 C14.4246486,17.5151351 14.8041081,18.2406486 14.8041081,19.3508108 C14.8041081,20.9412973 14.7891892,22.2243243 14.7891892,22.6148108 C14.7891892,22.932973 15.0025946,23.3033514 15.6042162,23.1865946 C20.3101622,21.6100541 23.7022703,17.1535135 23.7022703,11.8988108 C23.7022703,5.3267027 18.396,0 11.8504865,0 L11.8504865,0 Z" id="Stroke-53"></path>
                </g>
            </g>
        </g>
    </g>
</svg>
